X:1
T:Chi nudrisce
T:Chi nudrisce
T:Sigismondo d'India
T:Source : Le Musische a 2 voci di S.d'India---Libro II---Venetia---R.Amadino---1615. Editor : André Vierendeels (26/07/15).
T:Dialogo
T:Notes : Original clefs : C1, C1, F4 Editorial accidentals above the staff m 24 in S2, half rest  not in original print
C:Sigismondo d'India
%%score [ 1 2 ] 3
L:1/8
Q:1/4=80
M:4/4
K:C
V:1 treble nm="Soprano 1" snm="S 1"
V:2 treble nm="Soprano 2" snm="S 2"
V:3 bass nm="BC" snm="BC"
V:1
 B2 B2 B2 BB | B6 dA | B4 z GAB | c2 e4 dd | e4 e4 | z8 | z8 | z2 B2 d2 c2 | B3 A A2 B2- | %9
w: Chi nu- dri- sce tua|spe- me cor|mio, chi fiam- ma|cre- 'a tuoi de-|si- ri,|||chi ra- dol-|ci- sce'il fiel de|
 B2 cd G4 | A8 | z8 | z dAG B2 e2- | e2 cB c3 A | B4 B4 | z8 | z8 | z4 z EFG | AABc d4- | %19
w: _ tuoi mar- ti-|ri?||E chi ti dop- pia'e|_ chi t'in- as- pra'i|gua- i?|||Ma che t'an-|ci- d'e chi t'av- vi-|
 d2 c2 B4 | B8 | z8 | z8 | z edc ^c2 c2 |"^-natural" z ABc d4- | d2 A2 B2 B2 | z Bcd G4- | %27
w: * v'an- ci-|so?|||Ma chi t'an- ci- de|e chi t'av- vi-|* v'an- ci- so?|di duo be- gl'oc-|
 G2 G2 d4- | d2 cB cB BA | BA AG A4 | z GG^F G4- | G4 ^F4 | G8 | z4 z AGF | ^F2 F2 z FGA | %35
w: * ch'il ri-|||||so,|ma chi t'an-|ci- de e chi t'av-|
 B2 ^F2 G2 G2 | z4 z GAB | c6 d2 | e4 z ddc | d4 z ccB | cB BA B4 | z AAG A4 | G8 |] %43
w: vi- v'an- ci- so?|Di duo be-|gl'oc- ch'il|ri- * * *||||so.|
V:2
 z8 | z8 | z8 | z8 | z8 | B2 B2 d4- | d2 AG A4 | G8 | z8 | z8 | z ABc d3 B | c/A/B/c/ d4 ^c2 | %12
w: |||||Due be- gl'oc-|* chi lu- cen-|ti,|||per duo be- gl'oc- chi'ar-|den- * * * * *|
 d4 z4 | z8 | z8 | z BBc d4- | d2 e/d/c/B/- B4 | A8 | z8 | z8 | z Bcd G4- | G2 A2 A4 | G8 | %23
w: ti,|||de tuoi be- gl'oc-|* ch'i- * * ra- *|i,|||di duo be- gl'oc-|* ch'il ri-|so,|
 z4 z AG^F | ^F2 F2 z FGA | B2 ^F2 G2 G2 | z4 z GAB | c6 d2 | e6 dc | dc cB cB BA | B4 z AAG | A8 | %32
w: ma chi t'an-|ci- de e chi t'av-|vi- v'an- ci- so?|Di duo be-|gl'oc- ch'il|ri- * *||||
 G8 | z edc ^c2 c2 | z ABc d4- | d2 A2 B2 B2 | z Bcd G4- | G2 G2 d4 | z ccB c4 | z BBA BA AG | %40
w: so,|ma chi t'an- ci- de|e chi t'av- vi-|* v'an- ci- so?|Di duo be- gl'oc-|* ch'il ri-|||
 A4 z GG^F | G6 ^F2 | G8 |] %43
w: ||so.|
V:3
 G,8- | G,8- | G,8 | F,4 G,4 | C,8 | G,,8 | D,8 | G,,6 A,,2 | B,,2 C,2 D,4 | E,8 | D,4 B,,4 | %11
 A,,8 | D,4 G,,4 | A,,8 | E,8 | z4 D,4 | E,8 | A,,8 | ^F,,8- | F,,4 G,,4 | G,4- G, E,F,G, | %21
"^-natural" C,2 B,,2 D,4 | G,,8 | A,,8 | D,8 | G,2 D,2 G,,4 | G,4- G, E,F,G, | C,4 B,,4 |"^#" E,8 | %29
 D,4 A,,4 | E,8 | D,8 | G,,8 | A,,8 | D,8 | G,2 D,2 G,,4 | G,4 E,2 F,G, | C,6 B,,2 | E,8 | G,8 | %40
 F,8 | E,4 D,4 | G,,8 |] %43

